images/implant.svg

<svg width="210mm" height="210mm" viewBox="0 0 210 210" xmlns="http://www.w3.org/2000/svg">
  <path style="fill:none;stroke:#000;stroke-width:3;stroke-linecap:butt;stroke-linejoin:miter;stroke-miterlimit:4;stroke-dasharray:none;stroke-opacity:1" d="M.0147505 105H209.98525"/>
  <g aria-label="IMP" style="font-weight:700;font-size:64.1027px;line-height:1.25;-inkscape-font-specification:'sans-serif, Bold';stroke-width:1.60258">
    <path d="M55.74162995 80.0493958h11.28501768v49.90120497H55.74162995Z"/>
    <path d="M78.07717252 80.0493958h14.36275046l9.96598827 26.70533262 10.02461335-26.70533261h14.33343698v49.90120496h-10.6694685V93.45219651l-10.08323654 26.9058777h-7.15206738L88.77595543 93.4521965v36.49840426h-10.6987829Z"/>
    <path d="M137.81449022 80.0493958h18.73019541q8.3538429 0 12.80923389 4.2447769 4.48469322 4.21135466 4.48469322 12.03244052 0 7.85450916-4.48469322 12.09928284-4.455391 4.21135574-12.80923389 4.21135574h-7.44517399v17.31334897h-11.28502142zm11.28502142 9.32514134v13.93757653h6.24339847q3.28290835 0 5.07092519-1.80486614 1.78801684-1.83828942 1.78801684-5.1806343 0-3.3423449-1.78801684-5.14720996-1.78801684-1.80486613-5.07092519-1.80486613z"/>
  </g>
</svg>

<?xml version="1.0" encoding="UTF-8" standalone="no"?>
<svg
   width="210mm"
   height="210mm"
   viewBox="0 0 210 210"
   version="1.1"
   id="svg12"
   sodipodi:docname="implant.svg"
   inkscape:version="1.2.1 (9c6d41e410, 2022-07-14)"
   xmlns:inkscape="http://www.inkscape.org/namespaces/inkscape"
   xmlns:sodipodi="http://sodipodi.sourceforge.net/DTD/sodipodi-0.dtd"
   xmlns="http://www.w3.org/2000/svg"
   xmlns:svg="http://www.w3.org/2000/svg">
  <defs
     id="defs16" />
  <sodipodi:namedview
     id="namedview14"
     pagecolor="#ffffff"
     bordercolor="#999999"
     borderopacity="1"
     inkscape:showpageshadow="0"
     inkscape:pageopacity="0"
     inkscape:pagecheckerboard="0"
     inkscape:deskcolor="#d1d1d1"
     inkscape:document-units="mm"
     showgrid="false"
     inkscape:zoom="1.0381746"
     inkscape:cx="396.85039"
     inkscape:cy="397.33201"
     inkscape:window-width="1920"
     inkscape:window-height="1003"
     inkscape:window-x="0"
     inkscape:window-y="40"
     inkscape:window-maximized="1"
     inkscape:current-layer="svg12" />
  <path
     style="fill:none;stroke:#000;stroke-width:3;stroke-linecap:butt;stroke-linejoin:miter;stroke-miterlimit:4;stroke-dasharray:none;stroke-opacity:1"
     d="M.0147505 105H209.98525"
     id="path2" />
  <g
     aria-label="IMP"
     style="font-weight:700;font-size:64.1027px;line-height:1.25;-inkscape-font-specification:'sans-serif, Bold';stroke-width:1.60258"
     id="g10"
     transform="matrix(0.95914257,0,0,0.95914257,-2.1891376,4.2900301)">
    <path
       d="M 55.74163,80.049396 H 67.026648 V 129.9506 H 55.74163 Z"
       id="path4" />
    <path
       d="m 78.077173,80.049396 h 14.36275 l 9.965987,26.705334 10.02461,-26.705334 h 14.33344 V 129.9506 H 116.09449 V 93.452197 L 106.01126,120.35807 H 98.859189 L 88.775955,93.452196 V 129.9506 H 78.077173 Z"
       id="path6" />
    <path
       d="m 137.81449,80.049396 h 18.7302 q 8.35384,0 12.80923,4.244777 4.48469,4.211354 4.48469,12.03244 0,7.854507 -4.48469,12.099287 -4.45539,4.21135 -12.80923,4.21135 h -7.44518 v 17.31335 h -11.28502 z m 11.28502,9.325141 v 13.937573 h 6.2434 q 3.28291,0 5.07093,-1.80486 1.78801,-1.838292 1.78801,-5.180637 0,-3.342345 -1.78801,-5.14721 -1.78802,-1.804866 -5.07093,-1.804866 z"
       id="path8" />
  </g>
</svg>
